X:1
T:Lord, number out my life and days
T:Joseph Key
T:Text: John Hopkins, on Ps. 39
T:Edition released into the public domain, March 2010. As such, it may be freely copied and performed.
T:Lord, number out my life and days
T:PSALM XXXIX Verse 5
C:Joseph Key
Z:Text: John Hopkins, on Ps. 39
%%score [ 1 2 3 4 ]
L:1/8
Q:1/4=120
M:2/2
K:Gmin
V:1 treble nm="Soprano" snm="S."
V:2 treble nm="Alto" snm="A."
V:3 treble-8 transpose=-12 nm="Tenor" snm="T."
V:4 bass nm="Bass" snm="B."
V:1
"^Not too fast" G4 G2 A2 | (B3 A G2) G2 | A4 G4 | ^F8 | ^F4 G2 A2 | B4 ^F4 | G4 c2 c2 | B4 TA4 | %8
w: There- fore, O|Lord, _ _ what|wait I|for?|What help do|I de-|sire, what do|I de-|
w: Lord, num- ber|out _ _ my|life and|days,|Which yet I|have not,|which yet I|have not|
w: Man walk- eth|like _ _ a|shade, and|doth|In vain him-|self em-|ploy, doth him-|self em-|
 G8 |: B4 B2 B2 | A4 A4 | G4 G4 | ^F8 | (G3 A) B2 A2 | B4 z4 | (A3 B) c2 =B2 | c4 z4 | %17
w: sire?|Tru- ly my|hope is|e’en in|thee,|I _ no- thing|else,|I _ no- thing|else,|
w: pass’d:|So that I|may be|cer- ti-|fied,|How _ long my|life,|how _ long my|life,|
w: ploy|In get- ting|goods, and|can- not|tell|Who _ shall the|same,|who _ shall the|same,|
 (B3 c) d2 (dc) | B4 (A2 G2) | ^F8 | (B3 c) d2 c2 | B4 TA4 | G8 :| %23
w: I _ no- thing _|else re- *|quire,|I _ no- thing|else re-|quire.|
w: how _ long my _|life shall _|last,|how _ long my|life shall|last.|
w: who _ shall the _|same en- *|joy,|who _ shall the|same en-|joy.|
V:2
 D4 D2 D2 | D6 D2 | E4 D4 | D8 | z8 | D4 D2 D2 | (D3 E) F4 | D4 D4 | D8 |: F4 F2 F2 | F4 (F3 E) | %11
w: There- fore, O|Lord, what|wait I|for?||What help do|I, _ do|I de-|sire?|Tru- ly my|hope is _|
w: Lord, num- ber|out my|life and|days,||Which yet I|have _ not,|have not|pass’d:|So that I|may be _|
w: Man walk- eth|like a|shade, and|doth||In vain him-|self, _ him-|self em-|ploy|In get- ting|goods, and _|
 D4 C4 | D8 | z8 | D4 E2 F2 | =E4 z4 | F4 F2 =E2 | F6 F2 | E4 E4 | D8 | D4 D2 E2 | D4 D4 | D8 :| %23
w: e’en in|thee,||I no- thing|else,|I no- thing|else, none|else re-|quire,|I no- thing|else re-|quire.|
w: cer- ti-|fied,||How long my|life,|how long my|life, my|life shall|last,|how long my|life shall|last.|
w: can- not|tell||Who shall the|same,|who shall the|same, the|same en-|joy,|who shall the|same en-|joy.|
V:3
 G4 B2 A2 | (d3 c B2) B2 | c4 B4 | A8 | A4 B2 c2 | d4 A4 | B4 A2 A2 | G4 T^F4 | G8 |: d4 d2 d2 | %10
w: There- fore, O|Lord, _ _ what|wait I|for?|What help do|I de-|sire, what do|I de-|sire?|Tru- ly my|
w: Lord, num- ber|out _ _ my|life and|days,|Which yet I|have not,|which yet I|have not|pass’d:|So that I|
w: Man walk- eth|like _ _ a|shade, and|doth|In vain him-|self em-|ploy, doth him-|self em-|ploy|In get- ting|
 c4 A4 | B4 G4 | A8 | (B3 A) G2 ^F2 | G4 z4 | (c3 B) A2 G2 | A4 z4 | (d3 c) B2 (BA) | G4 (c2 B2) | %19
w: hope is|e’en in|thee,|I _ no- thing|else,|I _ no- thing|else,|I _ no- thing _|else re- *|
w: may be|cer- ti-|fied,|How _ long my|life,|how _ long my|life,|how _ long my _|life shall _|
w: goods, and|can- not|tell|Who _ shall the|same,|who _ shall the|same,|who _ shall the _|same en- *|
 A8 | (d3 c) B2 A2 | G4 T^F4 | G8 :| %23
w: quire,|I _ no- thing|else re-|quire.|
w: last,|how _ long my|life shall|last.|
w: joy,|who _ shall the|same en-|joy.|
V:4
 G,4 G,2 ^F,2 | G,6 G,2 | C,4 G,,4 | D,8 | z8 | D,4 D,2 D,2 | G,4 F,4 | (B,,2 C,2) D,4 | G,,8 |: %9
w: There- fore, O|Lord, what|wait I|for?||What help do|I, do|I _ de-|sire?|
w: Lord, num- ber|out my|life and|days,||Which yet I|have not,|have _ not|pass’d:|
w: Man walk- eth|like a|shade, and|doth||In vain him-|self, him-|self _ em-|ploy|
 B,4 B,2 B,2 | F,4 F,4 | G,4 E,4 | D,8 | z8 | (G,3 F,) E,2 D,2 | C,4 z4 | (F,3 E,) D,2 C,2 | %17
w: Tru- ly my|hope is|e’en in|thee,||I _ no- thing|else,|I _ no- thing|
w: So that I|may be|cer- ti-|fied,||How _ long my|life,|how _ long my|
w: In get- ting|goods, and|can- not|tell||Who _ shall the|same,|who _ shall the|
 B,,6 B,,2 | %18
w: else, none|
w: life, my|
w: same, the|
"^Verse 5 only of the text is given in the source: verses 6 and 8 have been added editorially, and have been underlaidto assist in word-fitting.The alto part is notated in the treble clef at the upper octave in the source.The time signature in the source is retorted time." E,4 C,4 | %19
w: else re-|
w: life shall|
w: same en-|
 D,8 | (G,,3 A,,) B,,2 C,2 | D,4 D,4 | G,,8 :| %23
w: quire,|I _ no- thing|else re-|quire.|
w: last,|how _ long my|life shall|last.|
w: joy,|who _ shall the|same en-|joy.|

